priv/static/svgs/country_flags/GI.svg

<?xml version="1.0" encoding="UTF-8"?>
<svg id="item" width="21px" height="15px" viewBox="0 0 21 15" version="1.1" xmlns="http://www.w3.org/2000/svg" xmlns:xlink="http://www.w3.org/1999/xlink">
    <defs>
        <linearGradient x1="50%" y1="0%" x2="50%" y2="100%" id="linearGradient-1">
            <stop stop-color="#FFFFFF" offset="0%"></stop>
            <stop stop-color="#F0F0F0" offset="100%"></stop>
        </linearGradient>
        <linearGradient x1="50%" y1="0%" x2="50%" y2="100%" id="linearGradient-2">
            <stop stop-color="#E71924" offset="0%"></stop>
            <stop stop-color="#D6101B" offset="100%"></stop>
        </linearGradient>
        <linearGradient x1="50%" y1="0%" x2="50%" y2="100%" id="linearGradient-3">
            <stop stop-color="#EA1824" offset="0%"></stop>
            <stop stop-color="#D6101B" offset="100%"></stop>
        </linearGradient>
        <linearGradient x1="50%" y1="0%" x2="50%" y2="100%" id="linearGradient-4">
            <stop stop-color="#262626" offset="0%"></stop>
            <stop stop-color="#0D0D0D" offset="100%"></stop>
        </linearGradient>
        <linearGradient x1="50%" y1="0%" x2="50%" y2="100%" id="linearGradient-5">
            <stop stop-color="#ECCE3E" offset="0%"></stop>
            <stop stop-color="#D9BC2D" offset="100%"></stop>
        </linearGradient>
    </defs>
    <g id="Symbols" stroke="none" stroke-width="1" fill="none" fill-rule="evenodd">
        <g id="GI">
            <rect id="FlagBackground" fill="url(#linearGradient-1)" x="0" y="0" width="21" height="15"></rect>
            <rect id="Rectangle-2" fill="url(#linearGradient-1)" x="0" y="0" width="21" height="10"></rect>
            <rect id="Combined-Shape" fill="url(#linearGradient-2)" x="0" y="10" width="21" height="5"></rect>
            <path d="M9,6 L8,6 L8,4.49047852 C8,4.21505737 7.77404508,4 7.49531555,4 L6.50468445,4 C6.21403503,4 6,4.21959471 6,4.49047852 L6,6.75476074 L6,8 L5,9 L16,9 L15,8 L15,6.75476074 L15,4.49047852 C15,4.21505737 14.7740451,4 14.4953156,4 L13.5046844,4 C13.214035,4 13,4.21959471 13,4.49047852 L13,6 L12,6 L12,3.49047852 C12,3.21505737 11.7782068,3 11.504611,3 L9.49538898,3 C9.2157526,3 9,3.21959471 9,3.49047852 L9,6 Z" id="Combined-Shape" fill="url(#linearGradient-3)"></path>
            <path d="M7,8 C6.72385763,8 6.5,7.77614237 6.5,7.5 C6.5,7.22385763 6.72385763,7 7,7 C7.27614237,7 7.5,7.22385763 7.5,7.5 C7.5,7.77614237 7.27614237,8 7,8 Z M7,6 C6.72385763,6 6.5,5.77614237 6.5,5.5 C6.5,5.22385763 6.72385763,5 7,5 C7.27614237,5 7.5,5.22385763 7.5,5.5 C7.5,5.77614237 7.27614237,6 7,6 Z M10.5,8 C10.2238576,8 10,7.77614237 10,7.5 C10,7.22385763 10.2238576,7 10.5,7 C10.7761424,7 11,7.22385763 11,7.5 C11,7.77614237 10.7761424,8 10.5,8 Z M10.5,5 C10.2238576,5 10,4.77614237 10,4.5 C10,4.22385763 10.2238576,4 10.5,4 C10.7761424,4 11,4.22385763 11,4.5 C11,4.77614237 10.7761424,5 10.5,5 Z M14,8 C13.7238576,8 13.5,7.77614237 13.5,7.5 C13.5,7.22385763 13.7238576,7 14,7 C14.2761424,7 14.5,7.22385763 14.5,7.5 C14.5,7.77614237 14.2761424,8 14,8 Z M14,6 C13.7238576,6 13.5,5.77614237 13.5,5.5 C13.5,5.22385763 13.7238576,5 14,5 C14.2761424,5 14.5,5.22385763 14.5,5.5 C14.5,5.77614237 14.2761424,6 14,6 Z" id="Combined-Shape" fill="url(#linearGradient-4)"></path>
            <path d="M10,9.9430981 L10,12 L9,12 L9,13 L11,13 L11,9.9430981 C11.5825962,9.80581929 12,9.43540628 12,9 C12,8.44771525 11.3284271,8 10.5,8 C9.67157288,8 9,8.44771525 9,9 C9,9.43540628 9.41740381,9.80581929 10,9.9430981 Z" id="Combined-Shape" fill="url(#linearGradient-5)"></path>
        </g>
    </g>
</svg>

<svg width="21" height="15" viewBox="0 0 21 15" xmlns="http://www.w3.org/2000/svg"><defs><linearGradient x1="50%" y1="0%" x2="50%" y2="100%" id="a"><stop stop-color="#FFF" offset="0%"/><stop stop-color="#F0F0F0" offset="100%"/></linearGradient><linearGradient x1="50%" y1="0%" x2="50%" y2="100%" id="b"><stop stop-color="#E71924" offset="0%"/><stop stop-color="#D6101B" offset="100%"/></linearGradient><linearGradient x1="50%" y1="0%" x2="50%" y2="100%" id="c"><stop stop-color="#EA1824" offset="0%"/><stop stop-color="#D6101B" offset="100%"/></linearGradient><linearGradient x1="50%" y1="0%" x2="50%" y2="100%" id="d"><stop stop-color="#262626" offset="0%"/><stop stop-color="#0D0D0D" offset="100%"/></linearGradient><linearGradient x1="50%" y1="0%" x2="50%" y2="100%" id="e"><stop stop-color="#ECCE3E" offset="0%"/><stop stop-color="#D9BC2D" offset="100%"/></linearGradient></defs><g fill="none" fill-rule="evenodd"><path fill="url(#a)" d="M0 0h21v15H0z"/><path fill="url(#a)" d="M0 0h21v10H0z"/><path fill="url(#b)" d="M0 10h21v5H0z"/><path d="M9 6H8V4.49A.495.495 0 0 0 7.495 4h-.99A.49.49 0 0 0 6 4.49V8L5 9h11l-1-1V4.49a.495.495 0 0 0-.505-.49h-.99a.49.49 0 0 0-.505.49V6h-1V3.49a.49.49 0 0 0-.495-.49h-2.01A.49.49 0 0 0 9 3.49V6Z" fill="url(#c)"/><path d="M7 8a.5.5 0 1 1 0-1 .5.5 0 0 1 0 1Zm0-2a.5.5 0 1 1 0-1 .5.5 0 0 1 0 1Zm3.5 2a.5.5 0 1 1 0-1 .5.5 0 0 1 0 1Zm0-3a.5.5 0 1 1 0-1 .5.5 0 0 1 0 1ZM14 8a.5.5 0 1 1 0-1 .5.5 0 0 1 0 1Zm0-2a.5.5 0 1 1 0-1 .5.5 0 0 1 0 1Z" fill="url(#d)"/><path d="M10 9.943V12H9v1h2V9.943c.583-.137 1-.508 1-.943 0-.552-.672-1-1.5-1S9 8.448 9 9c0 .435.417.806 1 .943Z" fill="url(#e)"/></g></svg>
